!!!!SEGMENT: pl-cz--iii-47--005_bulakowski-stefan--msza-as-et-incarnatus.krn
!!!cenid: 18xx:696
!!!COM: Bułakowski, Stefan
!!!COM-rismID: pe30085804
!!!CDT: 1784-1852
!!!CNT:
!!!OPR: Msza As
!!!OTL: Et incarnatus
!!!OMV: 005
!!!PDT:
!!!AGN: Sacred; Mass
!!!SMS-siglum: PL-CZ
!!!SMS-shelfmark: III-47
!!!SMS-shelfwork: 001-005 M
!!!SMS-variant:
!!!SMS-altvar:
!!!NIFC-rismSourceID: 300000053
!!!NIFC-rismChildID: 300000053
!!!NIFC-islandoraID: pl-cz:38687
!!!URL-pdf-islandora: https://repozytorium.nifc.pl/islandora/object/pl-cz%3A38687/datastream/PDF/view
!!!URL-scan:
!!!ONB-nifc: UWAGA: części Mszy: Kyrie, Gloria, Justus ut palma, Credo, Et incarnatus, Et resurrexit,
!!!AIN: 2 clars 2 cor 1 empty 2 fagot 2 tenor 1 tromt
!!!key:
**kern	**text	**dynam	**kern	**text	**dynam	**kern	**text	**dynam	**kern	**dynam	**kern	**dynam	**kern	**dynam	**kern	**dynam	**kern	**dynam	**kern	**dynam	**kern	**dynam
*part10	*part10	*part10	*part9	*part9	*part9	*part8	*part8	*part8	*part7	*part7	*part6	*part6	*part5	*part5	*part4	*part4	*part3	*part3	*part2	*part2	*part1	*part1
*staff10	*staff10	*	*staff9	*staff9	*	*staff8	*staff8	*	*staff7	*	*staff6	*	*staff5	*	*staff4	*	*staff3	*	*staff2	*	*staff1	*
*Iempty	*	*	*Itenor	*	*	*Itenor	*	*	*Itromt	*	*Icor	*	*Icor	*	*Ifagot	*	*Ifagot	*	*Iclars	*	*Iclars	*
*I"Baſso.	*	*	*I"Tenore 2.do	*	*	*I"Tenore 1mo	*	*	*I"Trombone.	*	*I"Corno. 2do in As.	*	*I"Corno 1mo in As.	*	*I"Fagotto. 2do	*	*I"Fagotto 1mo	*	*I"Clarinetto. 2do in B.	*	*I"Clarinetto. 1mo in B.	*
*I'B.	*	*	*I'T II	*	*	*I'T I	*	*	*I'Tr	*	*I'Cor II	*	*I'Cor I	*	*I'Fag. II	*	*I'Fag. I	*	*I'Cl. II	*	*I'Cl. I	*
*clefF4	*	*	*clefC4	*	*	*clefC4	*	*	*clefF4	*	*clefG2	*	*clefG2	*	*clefF4	*	*clefF4	*	*clefG2	*	*clefG2	*
*	*	*	*	*	*	*	*	*	*	*	*ITrd5c9	*	*ITrd2c4	*	*	*	*	*	*ITrd1c2	*	*ITrd1c2	*
*k[b-e-a-d-]	*	*	*k[b-e-a-d-]	*	*	*k[b-e-a-d-]	*	*	*k[b-e-a-d-]	*	*k[b-e-a-d-]	*	*k[b-e-a-d-]	*	*k[b-e-a-d-]	*	*k[b-e-a-d-]	*	*k[b-e-a-d-]	*	*k[b-e-a-d-]	*
*A-:	*	*	*A-:	*	*	*A-:	*	*	*A-:	*	*A-:	*	*A-:	*	*A-:	*	*A-:	*	*A-:	*	*A-:	*
*M3/4	*	*	*M3/4	*	*	*M3/4	*	*	*M3/4	*	*M3/4	*	*M3/4	*	*M3/4	*	*M3/4	*	*M3/4	*	*M3/4	*
=1	=1	=1	=1	=1	=1	=1	=1	=1	=1	=1	=1	=1	=1	=1	=1	=1	=1	=1	=1	=1	=1	=1
*	*	*	*	*	*	*	*	*	*	*	*	*	*2\right	*	*2\right	*	*2\right	*	*	*	*2\right	*
!	!	!	!	!	!	!	!	!	!	!	!LO:TX:a:t=P:problem=w źródle Corno 2do in As jest tak naprawde w stroju Es [przyjęto strój corno in Es]	!	!	!	!	!	!	!	!	!	!LO:TX:a:Bi:t=dol&colon;	!
!LO:TX:a:Bi:t=Etin Carnatus:problem='Et incarnatus' znajduje się po lewej przed kluczem i oznaczeniem metrum	!	!	!LO:TX:a:Bi:t=Etin Carnatus:problem='Et incarnatus' znajduje się po lewej przed kluczem i oznaczeniem metrum	!	!	!LO:TX:a:Bi:t=Etin Carnatus:problem='Et incarnatus' znajduje się po lewej przed kluczem i oznaczeniem metrum	!	!	!LO:TX:a:Bi:t=Et incarnatus:problem='Et incarnatus' znajduje się po lewej przed kluczem i oznaczeniem metrum	!	!	!	!	!	!	!	!	!	!	!	!	!
!	!	!	!	!	!	!	!	!	!	!	!	!	!	!	!LO:TX:a:Bi:t=Etin Carnatus:problem='Et incarnatus' znajduje się po lewej przed kluczem i oznaczeniem metrum	!	!LO:TX:a:Bi:t=Etin Carnatus:problem='Et incarnatus' znajduje się po lewej przed kluczem i oznaczeniem metrum	!	!	!	!	!
!	!	!	!	!	!	!	!	!	!	!	!LO:TX:a:Bi:t=Etin Carnatus:problem='Et incarnatus' znajduje się po lewej przed kluczem i oznaczeniem metrum	!	!LO:TX:a:Bi:t=Etin Carnatus:problem='Et incarnatus' znajduje się po lewej przed kluczem i oznaczeniem metrum	!	!	!	!	!	!	!	!	!
!	!	!	!	!	!	!	!	!	!	!	!	!	!	!	!	!	!	!	!LO:TX:a:Bi:t=Etin Carnatus:problem='Et incarnatus' znajduje się po lewej przed kluczem i oznaczeniem metrum	!	!LO:TX:a:Bi:t=Etin Carnatus:problem='Et incarnatus' znajduje się po lewej przed kluczem i oznaczeniem metrum	!
!LO:TX:a:Bi:t=Adagio:rj	!	!	!LO:TX:a:Bi:t=Adagio:rj	!	!	!LO:TX:a:Bi:t=Adagio:rj	!	!	!LO:TX:a:Bi:t=Adagio:rj	!	!LO:TX:a:Bi:t=Adagio:rj	!	!LO:TX:a:Bi:t=Adagio:rj	!	!LO:TX:a:Bi:t=Adagio:rj	!	!LO:TX:a:Bi:t=Adagio:rj	!	!LO:TX:a:Bi:t=Adagio:rj	!	!LO:TX:a:Bi:t=Adagio:rj	!
!LO:TX:a:Bi:t=1.	!	!	!	!	!	!	!	!	!LO:TX:a:Bi:t=16.	!	!LO:TX:a:Bi:t=14.	!	!	!	!	!	!	!	!	!	!	!
!	!	!	!	!	!	!	!	!	!LO:N:vis=00	!	!LO:N:vis=00	!	!	!	!	!	!	!	!	!	!	!
!	!	!	!	!	!LO:DY:b:t=%s.:rj	!	!	!LO:DY:b:t=%s.:rj	!	!	!	!	!	!LO:DY:b:rj	!	!LO:DY:b:t=%s.:rj	!	!LO:DY:b:t=%s.:rj	!	!LO:DY:b:rj	!	!LO:DY:b:t=%s.:rj
2.r	.	.	4A-\	Et	p	4c\	Et	p	0.r	.	0.r	.	[>2.a-\	p	4A-\	p	4A-\	p	4a-\	p	4cc\	p
.	.	.	4A-\	in-	.	4c\	in-	.	.	.	.	.	.	.	4A-\	.	4A-\	.	4a-\	.	4cc\	.
.	.	.	4B-\	-Car-	.	4d-\	-Car-	.	.	.	.	.	.	.	4A-\	.	4A-\	.	4b-\	.	4dd-\	.
=2	=2	=2	=2	=2	=2	=2	=2	=2	=2	=2	=2	=2	=2	=2	=2	=2	=2	=2	=2	=2	=2	=2
!	!	!LO:DY:b:rj	!	!	!	!	!	!	!	!	!	!	!	!	!	!	!	!	!	!	!	!
4A-\	Et	p	4c\	-na-	.	4e-\	-na-	.	.	.	.	.	2a-\]	.	4A-\	.	4A-\	.	4cc\	.	[>4ee-\	.
4A-\	in-	.	4A-\	-tus	.	4c\	-tus	.	.	.	.	.	.	.	4AA-/	.	4A-\	.	4a-\	.	16ee-\LL]	.
.	.	.	.	.	.	.	.	.	.	.	.	.	.	.	.	.	.	.	.	.	16cc\	.
.	.	.	.	.	.	.	.	.	.	.	.	.	.	.	.	.	.	.	.	.	16aa-\	.
.	.	.	.	.	.	.	.	.	.	.	.	.	.	.	.	.	.	.	.	.	16gg\JJ	.
4A-\	-car-	.	8r	.	.	8r	.	.	.	.	.	.	4r	.	4r	.	4r	.	4r	.	16ff\LL	.
.	.	.	.	.	.	.	.	.	.	.	.	.	.	.	.	.	.	.	.	.	16ee-\	.
.	.	.	8A-\	de	.	8c\	de	.	.	.	.	.	.	.	.	.	.	.	.	.	16dd-\	.
.	.	.	.	.	.	.	.	.	.	.	.	.	.	.	.	.	.	.	.	.	16cc\JJ	.
!	!	!	!LO:LB:g=original	!	!	!LO:LB:g=original	!	!	!	!	!	!	!	!	!	!	!	!	!	!	!	!
=3	=3	=3	=3	=3	=3	=3	=3	=3	=3	=3	=3	=3	=3	=3	=3	=3	=3	=3	=3	=3	=3	=3
!	!	!	!	!	!	!	!	!	!	!	!	!	!LO:SIC:s=2.g:v	!	!	!	!	!	!	!	!	!
4.E-\	-na-	.	4G\	spi-	.	4B-\	spi-	.	.	.	.	.	[>2.a-\	.	4E-\	.	4E-\	.	4g\	.	4b-\	.
.	.	.	4G\	-ri-	.	4B-\	-ri-	.	.	.	.	.	.	.	4E-\	.	4E-\	.	4g\	.	4b-\	.
8E-\	-tus	.	.	.	.	.	.	.	.	.	.	.	.	.	.	.	.	.	.	.	.	.
4E-\	est	.	4A-\	-tu	.	4c\	-tu	.	.	.	.	.	.	.	4E-\	.	4E-\	.	4a-\	.	4cc\	.
!LO:LB:g=original	!	!	!	!	!	!	!	!	!	!	!	!	!	!	!	!	!	!	!	!	!	!
=4	=4	=4	=4	=4	=4	=4	=4	=4	=4	=4	=4	=4	=4	=4	=4	=4	=4	=4	=4	=4	=4	=4
4E-\	de	.	(>8.B-\L	san-	.	(>8.d-\L	san-	.	.	.	.	.	2a-\]	.	8.E-\L	.	8.E-\L	.	8.b-\L	.	8.dd-\L	.
.	.	.	16A-\Jk)	.	.	16c\Jk)	.	.	.	.	.	.	.	.	16E-\Jk	.	16E-\Jk	.	16a-\Jk	.	16cc\Jk	.
8E-\	spi-	.	4G\	-cto	.	4B-\	-cto	.	.	.	.	.	.	.	4E-\	.	4E-\	.	4g\	.	16b-\LL	.
.	.	.	.	.	.	.	.	.	.	.	.	.	.	.	.	.	.	.	.	.	16cc\	.
8E-\	-ri-	.	.	.	.	.	.	.	.	.	.	.	.	.	.	.	.	.	.	.	16dd-\	.
.	.	.	.	.	.	.	.	.	.	.	.	.	.	.	.	.	.	.	.	.	16ee-\JJ	.
8E-\	-tu	.	4E-/	ex	.	(>8c\L	ex	.	.	.	.	.	4r	.	4r	.	4r	.	4r	.	8ff\L	.
8E-\	ex	.	.	.	.	8B-\J)	.	.	.	.	.	.	.	.	.	.	.	.	.	.	8gg\J	.
!	!	!	!	!	!	!	!	!	!	!	!	!	!	!	!	!	!	!	!LO:LB:g=original	!	!	!
=5	=5	=5	=5	=5	=5	=5	=5	=5	=5	=5	=5	=5	=5	=5	=5	=5	=5	=5	=5	=5	=5	=5
!	!	!	!	!	!	!	!	!	!	!	!	!	!LO:TX:a:Bi:t=1.	!	!	!	!	!	!	!	!	!
!	!	!	!	!	!	!	!	!	!LO:N:vis=00	!	!LO:N:vis=00	!	!	!	!	!	!	!	!	!	!	!
!	!	!	!	!	!	!	!	!	!	!	!	!	!	!	!	!LO:HP:a	!	!LO:HP:a	!	!LO:HP:a	!	!LO:HP:a
4A-\	Ma-	.	4C/	ma-	.	4A-\	ma-	.	0.r	.	0.r	.	2.r	.	4AA-/	<	4A-\	<	4cc\	<	4aa-\	<
4B-\	-ri-	.	4D-/	-ri-	.	4G\	-ri-	.	.	.	.	.	.	.	4BB-/	.	4B-\	.	4dd-\	.	4gg\	.
4c\	-a	.	4E-/	-a	.	4G-X\	-a	.	.	.	.	.	.	.	4C/	[	4c\	[	4ee-\	[	4gg-X\	[
!	!	!	!	!	!	!	!	!	!	!	!	!	!	!	!LO:LB:g=original	!	!LO:LB:g=original	!	!	!	!LO:LB:g=original	!
=6	=6	=6	=6	=6	=6	=6	=6	=6	=6	=6	=6	=6	=6	=6	=6	=6	=6	=6	=6	=6	=6	=6
8.d-X\	Vir-	.	8.F/	vir-	.	8.F\	vir-	.	.	.	.	.	4r	.	8D-X\	.	8d-X\	.	8dd-\	.	8ff\	.
.	.	.	.	.	.	.	.	.	.	.	.	.	.	.	8r	.	8r	.	8r	.	8r	.
16D-X/	-gi-	.	16F/	-gi-	.	16B-\	-gi-	.	.	.	.	.	.	.	.	.	.	.	.	.	.	.
4D-/	-ne	.	4F/	-ne	.	4d-\	-ne	.	.	.	.	.	2b-\	.	4D-\	.	4d-\	.	4f/	.	16ff\LL	.
.	.	.	.	.	.	.	.	.	.	.	.	.	.	.	.	.	.	.	.	.	16ee-\	.
.	.	.	.	.	.	.	.	.	.	.	.	.	.	.	.	.	.	.	.	.	16dd-\	.
.	.	.	.	.	.	.	.	.	.	.	.	.	.	.	.	.	.	.	.	.	16cc\JJ	.
8r	.	.	8r	.	.	8r	.	.	.	.	.	.	.	.	4BB-/	.	4B-\	.	4d-/	.	4b-\	.
8BB-/	Ma-	.	8F/	ma-	.	8d-\	ma-	.	.	.	.	.	.	.	.	.	.	.	.	.	.	.
!LO:LB:g=original	!	!	!LO:LB:g=original	!	!	!LO:LB:g=original	!	!	!	!	!	!	!	!	!	!	!	!	!	!	!	!
=7	=7	=7	=7	=7	=7	=7	=7	=7	=7	=7	=7	=7	=7	=7	=7	=7	=7	=7	=7	=7	=7	=7
8E-\	-ri-	.	8E-/	-ri-	.	8c\	-ri-	.	.	.	.	.	4a-\	.	4E-\	.	4A-\	.	8a-\L	.	8cc\L	.
8E-\	-a	.	8E-/	-a	.	(>16B-\LL	-a	.	.	.	.	.	.	.	.	.	.	.	16g\L	.	16b-\L	.
.	.	.	.	.	.	16c\JJ)	.	.	.	.	.	.	.	.	.	.	.	.	16a-\JJ	.	16cc\JJ	.
*	*	*	*	*	*	*	*	*	*	*	*	*	*tremolo	*	*	*	*	*	*	*	*	*
4G\	vir-	.	4E-/	vir-	.	(>8d-\L	vir-	.	.	.	.	.	8a-\L	.	8G\L	.	8G\L	.	8b-\L	.	8dd-\L	.
.	.	.	.	.	.	8B-\J)	.	.	.	.	.	.	8a-\	.	8G\	.	8G\	.	8g\	.	8b-\	.
(>8A-\L	-gi-	.	4E-/	-gi-	.	(>8c\L	-gi-	.	.	.	.	.	8a-\	.	8A-\	.	8A-\	.	8e-\	.	8cc\	.
8c\J)	.	.	.	.	.	8A-\J)	.	.	.	.	.	.	8a-\J	.	8C\J	.	8c\J	.	8e-\J	.	8a-\J	.
*	*	*	*	*	*	*	*	*	*	*	*	*	*Xtremolo	*	*	*	*	*	*	*	*	*
!	!	!	!	!	!	!	!	!	!	!	!	!	!LO:LB:g=original	!	!	!	!	!	!	!	!	!
=8	=8	=8	=8	=8	=8	=8	=8	=8	=8	=8	=8	=8	=8	=8	=8	=8	=8	=8	=8	=8	=8	=8
!	!	!	!	!	!	!	!	!	!	!	!	!	!LO:SIC:s=4.g:v	!	!	!	!	!	!	!	!	!
4E-\	-ne	.	4G/	-ne	.	4B-\	-ne	.	.	.	.	.	4.a-\	.	4.E-\	.	4.B-\	.	4g\	.	4b-\	.
4r	.	.	4r	.	.	4r	.	.	.	.	.	.	.	.	.	.	.	.	8e-/	.	16e-/LL	.
.	.	.	.	.	.	.	.	.	.	.	.	.	.	.	.	.	.	.	.	.	16d/	.
.	.	.	.	.	.	.	.	.	.	.	.	.	8r	.	8r	.	8r	.	8r	.	16e-/	.
.	.	.	.	.	.	.	.	.	.	.	.	.	.	.	.	.	.	.	.	.	16f/JJ	.
4r	.	.	4r	.	.	4r	.	.	.	.	.	.	4r	.	4r	.	4r	.	4r	.	16g\LL	.
.	.	.	.	.	.	.	.	.	.	.	.	.	.	.	.	.	.	.	.	.	16a-\	.
.	.	.	.	.	.	.	.	.	.	.	.	.	.	.	.	.	.	.	.	.	16b-\	.
.	.	.	.	.	.	.	.	.	.	.	.	.	.	.	.	.	.	.	.	.	16bX\JJ	.
=9	=9	=9	=9	=9	=9	=9	=9	=9	=9	=9	=9	=9	=9	=9	=9	=9	=9	=9	=9	=9	=9	=9
!LO:TX:a:Bi:t=1.	!	!	!	!	!	!	!	!	!	!	!	!	!	!	!	!	!	!	!	!	!	!
!	!	!	!	!	!	!	!	!	!LO:N:vis=00	!	!LO:N:vis=00	!	!	!	!	!	!	!	!	!	!	!
!	!	!	!	!	!	!	!	!	!	!	!	!	!	!LO:DY:b:rj	!	!LO:DY:b:rj	!	!LO:DY:b:rj	!	!LO:DY:b:rj	!	!LO:DY:b:rj
2.r	.	.	4A-\	Et	.	4c\	Et	.	0.r	.	0.r	.	[>2.a-\	p	4A-\	p	4A-\	p	4a-\	p	4cc\	p
.	.	.	4A-\	in-	.	4c\	in-	.	.	.	.	.	.	.	4A-\	.	4A-\	.	4a-\	.	4cc\	.
.	.	.	4B-\	-car-	.	4d-\	-car-	.	.	.	.	.	.	.	4A-\	.	4A-\	.	4b-\	.	4dd-\	.
=10	=10	=10	=10	=10	=10	=10	=10	=10	=10	=10	=10	=10	=10	=10	=10	=10	=10	=10	=10	=10	=10	=10
4A-\	Et	.	4c\	-na-	.	4e-\	-na-	.	.	.	.	.	2a-\]	.	4A-\	.	4A-\	.	4cc\	.	[>4ee-\	.
4A-\	in-	.	4A-\	-tus	.	4c\	-tus	.	.	.	.	.	.	.	4AA-/	.	4A-\	.	4a-\	.	16ee-\LL]	.
.	.	.	.	.	.	.	.	.	.	.	.	.	.	.	.	.	.	.	.	.	16cc\	.
.	.	.	.	.	.	.	.	.	.	.	.	.	.	.	.	.	.	.	.	.	16aa-\	.
.	.	.	.	.	.	.	.	.	.	.	.	.	.	.	.	.	.	.	.	.	16gg\JJ	.
4A-\	-car-	.	8r	.	.	8r	.	.	.	.	.	.	4r	.	4r	.	4r	.	4r	.	16ff\LL	.
.	.	.	.	.	.	.	.	.	.	.	.	.	.	.	.	.	.	.	.	.	16ee-\	.
.	.	.	8A-\	de	.	8c\	de	.	.	.	.	.	.	.	.	.	.	.	.	.	16dd-\	.
.	.	.	.	.	.	.	.	.	.	.	.	.	.	.	.	.	.	.	.	.	16cc\JJ	.
!	!	!	!LO:LB:g=original	!	!	!LO:LB:g=original	!	!	!	!	!	!	!	!	!	!	!	!	!	!	!	!
=11	=11	=11	=11	=11	=11	=11	=11	=11	=11	=11	=11	=11	=11	=11	=11	=11	=11	=11	=11	=11	=11	=11
!	!	!	!	!	!	!	!	!	!	!	!	!	!LO:SIC:s=2.g:v	!	!	!	!	!	!	!	!	!
4.E-\	-na-	.	4G\	spi-	.	4B-\	spi-	.	.	.	.	.	[>2.a-\	.	4E-\	.	4E-\	.	4g\	.	4b-\	.
.	.	.	4G\	-ri-	.	4B-\	-ri-	.	.	.	.	.	.	.	4E-\	.	4E-\	.	4g\	.	4b-\	.
8E-\	-tus	.	.	.	.	.	.	.	.	.	.	.	.	.	.	.	.	.	.	.	.	.
4E-\	est	.	4A-\	-tu	.	4c\	-tu	.	.	.	.	.	.	.	4E-\	.	4E-\	.	4a-\	.	4cc\	.
!LO:LB:g=original	!	!	!	!	!	!	!	!	!	!	!	!	!	!	!	!	!	!	!LO:LB:g=original	!	!LO:LB:g=original	!
=12	=12	=12	=12	=12	=12	=12	=12	=12	=12	=12	=12	=12	=12	=12	=12	=12	=12	=12	=12	=12	=12	=12
4E-\	de	.	(>8.B-\L	san-	.	(>8.d-\L	san-	.	.	.	.	.	2a-\]	.	8.E-\L	.	8.E-\L	.	8.b-\L	.	8.dd-\L	.
.	.	.	16A-\Jk)	.	.	16c\Jk)	.	.	.	.	.	.	.	.	16E-\Jk	.	16E-\Jk	.	16a-\Jk	.	16cc\Jk	.
8E-\	spi-	.	4G\	-cto	.	4B-\	-cto	.	.	.	.	.	.	.	4E-\	.	4E-\	.	4g\	.	16b-\LL	.
.	.	.	.	.	.	.	.	.	.	.	.	.	.	.	.	.	.	.	.	.	16cc\	.
8E-\	-ri-	.	.	.	.	.	.	.	.	.	.	.	.	.	.	.	.	.	.	.	16dd-\	.
.	.	.	.	.	.	.	.	.	.	.	.	.	.	.	.	.	.	.	.	.	16ee-\JJ	.
8E-\	-tu	.	4E-/	ex	.	(>8.c\L	ex	.	.	.	.	.	4r	.	4r	.	4r	.	4r	.	8ff\L	.
8E-\	ex	.	.	.	.	.	.	.	.	.	.	.	.	.	.	.	.	.	.	.	8gg\J	.
.	.	.	.	.	.	16B-\Jk)	.	.	.	.	.	.	.	.	.	.	.	.	.	.	.	.
=13	=13	=13	=13	=13	=13	=13	=13	=13	=13	=13	=13	=13	=13	=13	=13	=13	=13	=13	=13	=13	=13	=13
!	!	!	!	!	!	!	!	!	!	!	!	!	!LO:TX:a:Bi:t=1.	!	!	!	!	!	!	!	!	!
!	!	!	!	!	!	!	!	!	!LO:N:vis=00	!	!LO:N:vis=0	!	!	!	!	!	!	!	!	!	!	!
!	!	!	!	!	!	!	!	!	!	!	!	!	!	!	!	!LO:HP:a	!	!LO:HP:a	!	!LO:HP:a	!	!LO:HP:a
4A-\	Ma-	.	4C/	Ma-	.	4A-\	ma-	.	0.r	.	1.r	.	2.r	.	4AA-/	<	4A-\	<	4cc\	<	4aa-\	<
4B-\	-ri-	.	4D-/	-ri-	.	4G\	-ri-	.	.	.	.	.	.	.	4BB-/	.	4B-\	.	4dd-\	.	4gg\	.
4c\	-a	.	4E-/	-a	.	4G-X\	-a	.	.	.	.	.	.	.	4C/	[	4c\	[	4ee-\	[	4gg-X\	[
!	!	!	!	!	!	!	!	!	!	!	!	!	!	!	!LO:LB:g=original	!	!LO:LB:g=original	!	!	!	!	!
=14	=14	=14	=14	=14	=14	=14	=14	=14	=14	=14	=14	=14	=14	=14	=14	=14	=14	=14	=14	=14	=14	=14
8.d-X\	Vir-	.	8.F/	vir-	.	8.F'>\L	vir-	.	.	.	.	.	4r	.	8D-X\	.	8d-X\	.	8dd-\	.	8ff\	.
.	.	.	.	.	.	.	.	.	.	.	.	.	.	.	8r	.	8r	.	8r	.	8r	.
16D-X/	-gi-	.	16F/	-gi-	.	16B-'>\Jk	-gi-	.	.	.	.	.	.	.	.	.	.	.	.	.	.	.
4D-/	-ne	.	4F/	-ne	.	4d-'>\	-ne	.	.	.	.	.	2b-\	.	4D-\	.	4d-\	.	4f/	.	16ff\LL	.
.	.	.	.	.	.	.	.	.	.	.	.	.	.	.	.	.	.	.	.	.	16ee-\	.
.	.	.	.	.	.	.	.	.	.	.	.	.	.	.	.	.	.	.	.	.	16dd-\	.
.	.	.	.	.	.	.	.	.	.	.	.	.	.	.	.	.	.	.	.	.	16cc\JJ	.
8r	.	.	8r	.	.	8r	.	.	.	.	.	.	.	.	4BB-/	.	4B-\	.	4d-/	.	4b-\	.
8BB-/	Ma-	.	8F/	Ma-	.	8d-\	ma-	.	.	.	.	.	.	.	.	.	.	.	.	.	.	.
!	!	!	!LO:LB:g=original	!	!	!	!	!	!	!	!	!	!	!	!	!	!	!	!	!	!	!
=15	=15	=15	=15	=15	=15	=15	=15	=15	=15	=15	=15	=15	=15	=15	=15	=15	=15	=15	=15	=15	=15	=15
!	!	!	!	!	!	!	!	!	!	!	!	!	!LO:TX:a:t=P:problem=pominięty fragment	!	!	!	!	!	!	!	!	!
8E-\	-ri-	.	8E-/	-ri-	.	8c\	-ri-	.	.	.	4r	.	2.ryy	.	4E-\	.	4E-\	.	8e-/L	.	8cc\L	.
8E-\	-a	.	(<16D-/LL	-a	.	(>16B-\LL	-a	.	.	.	.	.	.	.	.	.	.	.	16d-/L	.	16b-\L	.
.	.	.	16E-/JJ)	.	.	16c\JJ)	.	.	.	.	.	.	.	.	.	.	.	.	16e-/JJ	.	16cc\JJ	.
*	*	*	*	*	*	*	*	*	*	*	*	*	*	*	*tremolo	*	*tremolo	*	*	*	*	*
4E-\	vir-	.	(<8F/L	vir-	.	(>8d-\L	vir-	.	.	.	4r	.	.	.	8E-\L	.	8E-\L	.	8f/L	.	8dd-\L	.
.	.	.	8D-/J)	.	.	8B-\J)	.	.	.	.	.	.	.	.	8E-\	.	8E-\	.	8d-/	.	8cc\	.
4E-\	-gi-	.	(<8D-/L	-gi-	.	(<8F/L	-gi-	.	.	.	4B-/	.	.	.	8E-\	.	8E-\	.	8B-/	.	8f\	.
.	.	.	8D-/J)	.	.	8G/J)	.	.	.	.	.	.	.	.	8E-\J	.	8E-\J	.	8d-/J	.	8g\J	.
*	*	*	*	*	*	*	*	*	*	*	*	*	*	*	*Xtremolo	*	*Xtremolo	*	*	*	*	*
=16	=16	=16	=16	=16	=16	=16	=16	=16	=16	=16	=16	=16	=16	=16	=16	=16	=16	=16	=16	=16	=16	=16
4A-\	-ne	.	4C/	-ne	.	4A-\	-ne	.	.	.	4c/	.	4a-\	.	4A-\	.	4A-\	.	4c/	.	4a-\	.
4r	.	.	4r	.	.	4r	.	.	.	.	4r	.	4r	.	4r	.	16r	.	16r	.	16r	.
.	.	.	.	.	.	.	.	.	.	.	.	.	.	.	.	.	16e-\LL	.	16e-/LL	.	16ee-\LL	.
.	.	.	.	.	.	.	.	.	.	.	.	.	.	.	.	.	16dn\	.	16d/	.	16dd\	.
.	.	.	.	.	.	.	.	.	.	.	.	.	.	.	.	.	16e-\JJ	.	16e-/JJ	.	16ee-\JJ	.
4r	.	.	4r	.	.	4r	.	.	.	.	4r	.	4r	.	4r	.	16f\LL	.	16f/LL	.	16ff\LL	.
.	.	.	.	.	.	.	.	.	.	.	.	.	.	.	.	.	16e-\	.	16e-/	.	16ee-\	.
.	.	.	.	.	.	.	.	.	.	.	.	.	.	.	.	.	16c\	.	16c/	.	16cc\	.
.	.	.	.	.	.	.	.	.	.	.	.	.	.	.	.	.	16A-\JJ	.	16A-/JJ	.	16a-\JJ	.
!LO:PB:g=original	!	!	!	!	!	!	!	!	!	!	!	!	!	!	!	!	!	!	!	!	!	!
=17	=17	=17	=17	=17	=17	=17	=17	=17	=17	=17	=17	=17	=17	=17	=17	=17	=17	=17	=17	=17	=17	=17
!	!	!	!	!	!	!	!	!	!	!LO:DY:b:rj	!	!	!	!	!	!	!	!	!	!	!	!
4E-\	et	.	(>8G\L	et	.	(>8B-\L	et	.	8E-\	p	8d-X\	.	8a-\	.	8E-\	.	8G\L	.	8b-\L	.	8ee-\	.
.	.	.	8A-\J)	.	.	8c\J)	.	.	8r	.	8r	.	8r	.	8r	.	8A-\	.	8cc\	.	4ee-\	.
8E-\	ho-	.	8B-\	ho-	.	8d-\	ho-	.	8E-\	.	8d-\	.	8a-\	.	8E-\	.	8B-\	.	8dd-\	.	.	.
8E-\	-mo	.	8A-\	-mo	.	8c\	-mo	.	8r	.	8r	.	8r	.	8r	.	8A-\	.	8cc\	.	4ee-\	.
8E-\	fa-	.	8B-\	fa-	.	8d-\	fac-	.	8E-\	.	8d-\	.	8a-\	.	8E-\	.	8B-\	.	8dd-\	.	.	.
8E-\	-ctus	.	8c\	-ctus	.	8e-\	-tus	.	8r	.	8r	.	8r	.	8r	.	8c\J	.	8ee-\J	.	8ee-\	.
!	!	!	!	!	!	!LO:LB:g=original	!	!	!	!	!	!	!LO:LB:g=original	!	!	!	!	!	!LO:LB:g=original	!	!LO:LB:g=original	!
=18	=18	=18	=18	=18	=18	=18	=18	=18	=18	=18	=18	=18	=18	=18	=18	=18	=18	=18	=18	=18	=18	=18
4A-\	est	.	4A-\	est	.	4c\	est	.	4AA-/	.	4c/	.	4a-\	.	4A-\	.	4A-\	.	4cc\	.	16a-\LL	.
.	.	.	.	.	.	.	.	.	.	.	.	.	.	.	.	.	.	.	.	.	16ee-\	.
.	.	.	.	.	.	.	.	.	.	.	.	.	.	.	.	.	.	.	.	.	16dd\	.
.	.	.	.	.	.	.	.	.	.	.	.	.	.	.	.	.	.	.	.	.	16ee-\JJ	.
4r	.	.	4r	.	.	4r	.	.	4r	.	4r	.	4r	.	4r	.	4r	.	4r	.	16aa-\LL	.
.	.	.	.	.	.	.	.	.	.	.	.	.	.	.	.	.	.	.	.	.	16ee-\	.
.	.	.	.	.	.	.	.	.	.	.	.	.	.	.	.	.	.	.	.	.	16ccc\	.
.	.	.	.	.	.	.	.	.	.	.	.	.	.	.	.	.	.	.	.	.	16bb-\JJ	.
!	!	!	!	!	!	!	!	!	!	!	!	!	!	!	!	!	!	!	!	!	!LO:TUP:a:problem=klamra łukowa	!
4r	.	.	4r	.	.	4r	.	.	4r	.	4r	.	4r	.	4r	.	4r	.	4r	.	24aa-\LL	.
.	.	.	.	.	.	.	.	.	.	.	.	.	.	.	.	.	.	.	.	.	24gg\	.
.	.	.	.	.	.	.	.	.	.	.	.	.	.	.	.	.	.	.	.	.	24ff\JJ	.
!	!	!	!	!	!	!	!	!	!	!	!	!	!	!	!	!	!	!	!	!	!LO:TUP:a:problem=klamra łukowa	!
.	.	.	.	.	.	.	.	.	.	.	.	.	.	.	.	.	.	.	.	.	24ee-\LL	.
.	.	.	.	.	.	.	.	.	.	.	.	.	.	.	.	.	.	.	.	.	24dd\	.
.	.	.	.	.	.	.	.	.	.	.	.	.	.	.	.	.	.	.	.	.	24cc\JJ	.
!LO:LB:g=original	!	!	!LO:PB:g=original	!	!	!	!	!	!LO:LB:g=original	!	!LO:LB:g=original	!	!	!	!	!	!	!	!	!	!	!
=19	=19	=19	=19	=19	=19	=19	=19	=19	=19	=19	=19	=19	=19	=19	=19	=19	=19	=19	=19	=19	=19	=19
4E-\	et	.	(>8G\L	et	.	(>8B-\L	et	.	8E-\	.	8d-X\	.	8a-\	.	8E-\	.	8G\L	.	8b-\L	.	8ee-\	.
.	.	.	8A-\J)	.	.	8c\J)	.	.	8r	.	8r	.	8r	.	8r	.	8A-\	.	8cc\	.	4ee-\	.
8E-\	ho-	.	8B-\	ho-	.	8d-\	ho-	.	8E-\	.	8d-\	.	8a-\	.	8E-\	.	8B-\	.	8dd-\	.	.	.
8E-\	-mo	.	8A-\	-mo-	.	8c\	-mo-	.	8r	.	8r	.	8r	.	8r	.	8A-\	.	8cc\	.	4ee-\	.
8E-\	fa-	.	8B-\	-fa-	.	8d-\	-fa-	.	8E-\	.	8d-\	.	8a-\	.	8E-\	.	8B-\	.	8dd-\	.	.	.
8E-\	-ctus	.	8c\	-ctus	.	8e-\	-ctus	.	8r	.	8r	.	8r	.	8r	.	8c\J	.	8ee-\J	.	8ee-\	.
=20	=20	=20	=20	=20	=20	=20	=20	=20	=20	=20	=20	=20	=20	=20	=20	=20	=20	=20	=20	=20	=20	=20
4A-\	est	.	4A-\	est	.	4c\	est	.	4AA-/	.	4c/	.	4a-\	.	4A-\	.	16A-\LL	.	4cc\	.	16cc\LL	.
.	.	.	.	.	.	.	.	.	.	.	.	.	.	.	.	.	16A-\	.	.	.	16a-\	.
.	.	.	.	.	.	.	.	.	.	.	.	.	.	.	.	.	16G\	.	.	.	16g\	.
.	.	.	.	.	.	.	.	.	.	.	.	.	.	.	.	.	16A-\JJ	.	.	.	16a-\JJ	.
4r	.	.	4r	.	.	4r	.	.	4r	.	4r	.	4r	.	4r	.	16B-\LL	.	4r	.	16b-\LL	.
.	.	.	.	.	.	.	.	.	.	.	.	.	.	.	.	.	16A-\	.	.	.	16a-\	.
.	.	.	.	.	.	.	.	.	.	.	.	.	.	.	.	.	16B-\	.	.	.	16b-\	.
.	.	.	.	.	.	.	.	.	.	.	.	.	.	.	.	.	16c\JJ	.	.	.	16cc\JJ	.
4r	.	.	4r	.	.	4r	.	.	4r	.	4r	.	4r	.	4r	.	16d-\LL	.	4r	.	16dd-\LL	.
.	.	.	.	.	.	.	.	.	.	.	.	.	.	.	.	.	16c\	.	.	.	16cc\	.
.	.	.	.	.	.	.	.	.	.	.	.	.	.	.	.	.	16d-\	.	.	.	16dd-\	.
.	.	.	.	.	.	.	.	.	.	.	.	.	.	.	.	.	16e-\JJ	.	.	.	16ee-\JJ	.
!	!	!	!	!	!	!	!	!	!	!	!	!	!	!	!	!	!LO:LB:g=original	!	!	!	!	!
=21	=21	=21	=21	=21	=21	=21	=21	=21	=21	=21	=21	=21	=21	=21	=21	=21	=21	=21	=21	=21	=21	=21
!	!	!	!	!	!	!	!	!	!	!	!LO:TX:a:Bi:t=2	!	!LO:TX:a:Bi:t=2	!	!	!	!	!	!	!	!	!
!LO:SIC:s=4.An:v	!	!	!	!	!	!	!	!	!	!	!	!	!	!	!	!	!	!	!	!	!	!
!	!	!	!	!	!	!	!	!	!	!	!LO:N:vis=0	!	!LO:N:vis=0	!	!	!	!	!	!	!	!	!
4.A-^>\	Cru-	.	(>4.c^>\	sub	.	4.f^>\	Cru-	.	4.AAn^>/	.	1.r	.	1.r	.	4.An^>\	.	4.f^>\	.	4.cc^>\	.	4.ff^>\	.
!	!	!	!	!	!	!	!	!	!LO:SIC:s=8AA-:v	!	!	!	!	!	!LO:SIC:s=8A-:v	!	!	!	!	!	!	!
8A-\	-ci-	.	8c\)	.	.	8e-\	-ci-	.	8AA/L	.	.	.	.	.	8A\L	.	8e-\L	.	8cc\L	.	8ee-\L	.
!LO:SIC:l:s=-fix-:v	!	!	!	!	!	!LO:SIC:l:s=-fix-:v	!	!	!	!	!	!	!	!	!	!	!	!	!	!	!	!
8B-\	-fi-	.	8F/	pon-	.	8d-\	-fi-	.	8BB-/	.	.	.	.	.	8B-\	.	8d-\	.	8f\	.	8dd-\	.
!LO:SIC:l:s=-sus:v	!	!	!	!	!	!LO:SIC:l:s=-sus:v	!	!	!	!	!	!	!	!	!	!	!	!	!	!	!	!
8d-\	-csus	.	8F/	-ti-	.	8B-\	-csus	.	8D-/J	.	.	.	.	.	8d-\J	.	8B-\J	.	8f\J	.	8b-\J	.
!	!	!	!LO:LB:g=original	!	!	!LO:LB:g=original	!	!	!	!	!	!	!	!	!	!	!	!	!	!	!	!
!	!	!	!	!	!	!	!	!	!	!	!	!	!	!	!LO:LB:g=original	!	!	!	!	!	!	!
=22	=22	=22	=22	=22	=22	=22	=22	=22	=22	=22	=22	=22	=22	=22	=22	=22	=22	=22	=22	=22	=22	=22
4.G^>\	Cru-	.	4.B-^>\	-O	.	4.e-^>\	Cru-	.	4.GG^>/	.	.	.	.	.	4.G^>\	.	4.e-^>\	.	4.b-^>\	.	4.ee-^>\	.
8G\	-ci-	.	8B-\	pi-	.	8d-\	-ci-	.	8GG/L	.	.	.	.	.	8G\L	.	8d-\L	.	8b-\L	.	8dd-\L	.
!LO:SIC:l:s=-fix-:v	!	!	!	!	!	!LO:SIC:l:s=-fix-:v	!	!	!	!	!	!	!	!	!	!	!	!	!	!	!	!
8A-X\	-fi-	.	8E-/	-la-	.	8c\	-fi-	.	8AA-X/	.	.	.	.	.	8A-X\	.	8c\	.	8e-\	.	8cc\	.
!LO:SIC:l:s=-sus:v	!	!	!	!	!	!LO:SIC:l:s=-sus:v	!	!	!	!	!	!	!	!	!	!	!	!	!	!	!	!
8c\	-csus	.	8E-/	-to	.	8A-\	-csus	.	8C/J	.	.	.	.	.	8c\J	.	8A-\J	.	8e-\J	.	8a-\J	.
=23	=23	=23	=23	=23	=23	=23	=23	=23	=23	=23	=23	=23	=23	=23	=23	=23	=23	=23	=23	=23	=23	=23
!	!	!	!LO:SIC:l:s=pas-:v	!	!	!	!	!	!	!	!	!	!	!	!	!	!	!	!	!	!	!
[>4E-\	e-	.	8G'>\L	pa-	.	(>8B-\L	e-	.	8E-\	.	8B-/	.	8a-\	.	8E-\	.	8d-\	.	8g\L	.	8b-\L	.
.	.	.	8A-'>\J	-sus	.	8c\J)	.	.	8r	.	4B-/	.	4a-\	.	4E-\	.	4d-\	.	8a-\	.	8cc\	.
8E-\]	.	.	8B-'>\L	et	.	(>8d-\L	-ti-	.	8E-\	.	.	.	.	.	.	.	.	.	8b-\	.	8dd-\	.
8E-\	-ti-	.	8d-'>\J	se-	.	8f\J)	.	.	8r	.	4B-/	.	4a-\	.	4E-\	.	4d-\	.	8dd-\	.	8ff\	.
8E-\	-am	.	8c\	-pul-	.	8e-\	-am	.	8E-\	.	.	.	.	.	.	.	.	.	8cc\	.	8ee-\	.
8E-\	pro-	.	8B-\	-tus	.	8d-\	pro	.	8r	.	8B-/	.	8a-\	.	8E-\	.	8d-\	.	8b-\J	.	8dd-\J	.
!LO:LB:g=original	!	!	!	!	!	!	!	!	!	!	!	!	!	!	!	!	!	!	!	!	!LO:LB:g=original	!
=24	=24	=24	=24	=24	=24	=24	=24	=24	=24	=24	=24	=24	=24	=24	=24	=24	=24	=24	=24	=24	=24	=24
(>8.c\L	-no-	.	(>8.A-\L	est	.	(>8.c\L	no-	.	8.C/L	.	8.c/L	.	8.a-\L	.	8.C/L	.	8.c\L	.	8a-\L	.	8.cc\L	.
.	.	.	.	.	.	.	.	.	.	.	.	.	.	.	.	.	.	.	8b-\	.	.	.
16B-\Jk)	.	.	16B-\Jk	.	.	16d-\Jk)	.	.	16BB-/Jk	.	16d-X/Jk	.	16a-\Jk	.	16BB-/Jk	.	16B-\Jk	.	.	.	16dd-\Jk	.
!	!	!	!	!	!	!	!	!	!	!	!	!	!	!	!LO:TX:a:t=P:problem=mixed beam	!	!	!	!	!	!	!
4A-\	-bis	.	4c\)	.	.	4e-\	-bis	.	4AA-/	.	4c/	.	4a-\	.	8AA-/L	.	8A-\L	.	8cc\	.	8ee-\L	.
.	.	.	.	.	.	.	.	.	.	.	.	.	.	.	8A-\	.	8c\	.	8a-\	.	8cc\	.
4r	.	.	4r	.	.	4r	.	.	4r	.	4r	.	4r	.	8B-\	.	8d-\	.	8b-\	.	8dd-\	.
.	.	.	.	.	.	.	.	.	.	.	.	.	.	.	8c\J	.	8e-\J	.	8cc\J	.	8ee-\J	.
!	!	!	!LO:LB:g=original	!	!	!LO:PB:g=original	!	!	!LO:LB:g=original	!	!	!	!	!	!	!	!	!	!LO:LB:g=original	!	!	!
=25	=25	=25	=25	=25	=25	=25	=25	=25	=25	=25	=25	=25	=25	=25	=25	=25	=25	=25	=25	=25	=25	=25
!	!	!	!	!	!	!	!	!	!	!	!LO:TX:a:Bi:t=2.	!	!LO:TX:a:Bi:t=2	!	!	!	!	!	!	!	!	!
(>4.An^>\	ſub	.	(>4.c^>\	ſub	.	(>4.f^>\	ſub	.	4.AAn^>/	.	1.r	.	1.r	.	4.An^>\	.	4.f^>\	.	4.cc^>\	.	4.ff^>\	.
8A\)	.	.	8c\)	.	.	8e-\)	.	.	8AA/L	.	.	.	.	.	8A\L	.	8e-\L	.	8cc\L	.	8ee-\L	.
8B-\	pon-	.	8F/	pon-	.	8d-\	pon-	.	8BB-/	.	.	.	.	.	8B-\	.	8d-\	.	8f\	.	8dd-\	.
8d-\	-ti-	.	8F/	-ti-	.	8B-\	-ti-	.	8D-/J	.	.	.	.	.	8d-\J	.	8B-\J	.	8f\J	.	8b-\J	.
=26	=26	=26	=26	=26	=26	=26	=26	=26	=26	=26	=26	=26	=26	=26	=26	=26	=26	=26	=26	=26	=26	=26
4.G^>\	-o	.	4.B-^>\	-O	.	4.e-^>\	-O	.	4.GG^>/	.	.	.	.	.	4.G^>\	.	4.e-\	.	4.b-^>\	.	4.ee-^>\	.
8G\	pi-	.	8B-\	pi-	.	8d-\	pi-	.	8GG/L	.	.	.	.	.	8G\L	.	8d-\L	.	8b-\L	.	8dd-\L	.
8A-X\	-la-	.	8F/	-la-	.	8c\	-la-	.	8AA-X/	.	.	.	.	.	8A-X\	.	8c\	.	8e-\	.	8cc\	.
8c\	-to	.	8F/	-to	.	8A-\	-to	.	8C/J	.	.	.	.	.	8c\J	.	8A-\J	.	8e-\J	.	8a-\J	.
!LO:LB:g=original	!	!	!	!	!	!	!	!	!	!	!	!	!	!	!	!	!	!	!	!	!	!
=27	=27	=27	=27	=27	=27	=27	=27	=27	=27	=27	=27	=27	=27	=27	=27	=27	=27	=27	=27	=27	=27	=27
!	!	!	!	!	!	!	!	!	!	!	!	!	!	!	!	!	!	!	!	!	!LO:TX:a:t=P:problem=mixed beam	!
!LO:SIC:l:s=pas-:v	!	!	!LO:SIC:l:s=pas-:v	!	!	!LO:SIC:l:s=pas-:v	!	!	!	!	!	!	!	!	!	!	!	!	!	!	!	!
8D-\	pa-	.	8D-/	pa-	.	8B-\	pa-	.	4D-\	.	8d-X\	.	8b-\	.	8D-\	.	8F\	.	8d-/L	.	8b-\L	.
8D-\	-sus	.	8E-/	-sus	.	8c\	-sus	.	.	.	4d-\	.	4b-\	.	4D-\	.	4F\	.	8e-/	.	8cc\	.
8E-\	et	.	8F/	et	.	8d-\	et	.	4r	.	.	.	.	.	.	.	.	.	8f/	.	8dd-\	.
8E-\	se-	.	8D-/	se-	.	8E-/	se-	.	.	.	8B-/L	.	8a-\L	.	8E-\L	.	8d-\L	.	8d-/	.	8e-/	.
8E-\	-pul-	.	8D-/	-pul-	.	8F/	-pul-	.	4E-\	.	8B-/	.	8a-\	.	8E-\	.	8d-\	.	8d-/	.	8f/	.
8E-\	-tus	.	8D-/	-tus	.	8G/	-tus	.	.	.	8B-/J	.	8a-\J	.	8E-\J	.	8d-\J	.	8d-/J	.	8g/J	.
!	!	!	!LO:LB:g=original	!	!	!LO:LB:g=original	!	!	!	!	!	!	!LO:LB:g=original	!	!	!	!	!	!	!	!	!
=28	=28	=28	=28	=28	=28	=28	=28	=28	=28	=28	=28	=28	=28	=28	=28	=28	=28	=28	=28	=28	=28	=28
!	!	!	!	!	!	!	!	!	!	!	!	!LO:DY:b:rj	!	!	!	!LO:DY:b:rj	!	!LO:DY:b:rj	!	!LO:DY:b:rj	!	!
4AA-/	est	.	4C/	est	.	4A-\	est	.	4AA-/	.	[<2.c/	p	[>2.a-\	.	[<2.AA-/	p	[>2.A-\	p	[<2.c/	p	4a-\	.
4r	.	.	4r	.	.	4r	.	.	4r	.	.	.	.	.	.	.	.	.	.	.	16r	.
.	.	.	.	.	.	.	.	.	.	.	.	.	.	.	.	.	.	.	.	.	16ee-\LL	.
.	.	.	.	.	.	.	.	.	.	.	.	.	.	.	.	.	.	.	.	.	16cc\	.
.	.	.	.	.	.	.	.	.	.	.	.	.	.	.	.	.	.	.	.	.	16aa-\JJ	.
4r	.	.	4r	.	.	4r	.	.	4r	.	.	.	.	.	.	.	.	.	.	.	16ee-\LL	.
.	.	.	.	.	.	.	.	.	.	.	.	.	.	.	.	.	.	.	.	.	16ccc\	.
.	.	.	.	.	.	.	.	.	.	.	.	.	.	.	.	.	.	.	.	.	16aa-\	.
.	.	.	.	.	.	.	.	.	.	.	.	.	.	.	.	.	.	.	.	.	16ee-\JJ	.
!	!	!	!	!	!	!	!	!	!	!	!LO:LB:g=original	!	!	!	!LO:LB:g=original	!	!LO:LB:g=original	!	!	!	!	!
=29	=29	=29	=29	=29	=29	=29	=29	=29	=29	=29	=29	=29	=29	=29	=29	=29	=29	=29	=29	=29	=29	=29
!LO:TX:a:Bi:t=2	!	!	!LO:TX:a:Bi:t=2	!	!	!LO:TX:a:Bi:t=2	!	!	!LO:TX:a:Bi:t=1.	!	!	!	!	!	!	!	!	!	!	!	!	!
!LO:N:vis=0	!	!	!LO:N:vis=0	!	!	!LO:N:vis=0	!	!	!	!	!	!	!	!	!	!	!	!	!	!	!	!
1.r	.	.	1.r	.	.	1.r	.	.	2.r	.	2.c/_<	.	2.a-\_>	.	2.AA-/]	.	2.A-\]	.	2.c/_<	.	16cc\LL	.
.	.	.	.	.	.	.	.	.	.	.	.	.	.	.	.	.	.	.	.	.	16ee-\	.
.	.	.	.	.	.	.	.	.	.	.	.	.	.	.	.	.	.	.	.	.	16a-\	.
.	.	.	.	.	.	.	.	.	.	.	.	.	.	.	.	.	.	.	.	.	16cc\JJ	.
.	.	.	.	.	.	.	.	.	.	.	.	.	.	.	.	.	.	.	.	.	16e-/LL	.
.	.	.	.	.	.	.	.	.	.	.	.	.	.	.	.	.	.	.	.	.	16cc/	.
.	.	.	.	.	.	.	.	.	.	.	.	.	.	.	.	.	.	.	.	.	16a-/	.
.	.	.	.	.	.	.	.	.	.	.	.	.	.	.	.	.	.	.	.	.	16e-/JJ	.
.	.	.	.	.	.	.	.	.	.	.	.	.	.	.	.	.	.	.	.	.	16c/LL	.
.	.	.	.	.	.	.	.	.	.	.	.	.	.	.	.	.	.	.	.	.	16a-/	.
.	.	.	.	.	.	.	.	.	.	.	.	.	.	.	.	.	.	.	.	.	16e-/	.
.	.	.	.	.	.	.	.	.	.	.	.	.	.	.	.	.	.	.	.	.	16c/JJ	.
=30	=30	=30	=30	=30	=30	=30	=30	=30	=30	=30	=30	=30	=30	=30	=30	=30	=30	=30	=30	=30	=30	=30
.	.	.	.	.	.	.	.	.	4A-\	.	4c/]	.	4a-\]	.	4A-\	.	4A-\	.	4c/]	.	4A-/	.
.	.	.	.	.	.	.	.	.	4E-\	.	4c/	.	4a-\	.	4E-\	.	4E-\	.	4c/	.	4a-\	.
.	.	.	.	.	.	.	.	.	4C/	.	4c/	.	4a-\	.	4C\	.	4C/	.	4c/	.	4a-\	.
=31	=31	=31	=31	=31	=31	=31	=31	=31	=31	=31	=31	=31	=31	=31	=31	=31	=31	=31	=31	=31	=31	=31
!LO:TX:a:Bi:t=1	!	!	!LO:TX:a:Bi:t=1	!	!	!LO:TX:a:Bi:t=1	!	!	!	!	!	!	!	!	!	!	!	!	!	!	!	!
!LO:TX:a:t=P:problem=w źródle fermata nad '1'	!	!	!LO:TX:a:t=P:problem=w źródle fermata nad '1'	!	!	!LO:TX:a:t=P:problem=w źródle fermata nad '1'	!	!	!	!	!	!	!	!	!	!	!	!	!	!	!	!
2.r;>	.	.	2.r;>	.	.	2.r;>	.	.	2.AA-;>/	.	2.c;>/	.	2.a-;>\	.	2.AA-;>/	.	2.AA-;>/	.	2.c;>/	.	2.a-;>\	.
!LO:TX:a:t=P:problem=w źródle ozdobna kreska końcowa ==;;	!	!	!LO:TX:a:t=P:problem=w źródle ozdobna kreska końcowa ==;;	!	!	!LO:TX:a:t=P:problem=w źródle ozdobna kreska końcowa ==;;	!	!	!LO:TX:a:t=P:problem=w źródle ozdobna kreska końcowa ==;;	!	!	!	!	!	!	!	!	!	!	!	!	!
!	!	!	!	!	!	!	!	!	!	!	!	!	!	!	!LO:TX:a:t=P:problem=w źródle ozdobna kreska końcowa ==;;	!	!LO:TX:a:t=P:problem=w źródle ozdobna kreska końcowa ==;;	!	!	!	!	!
!	!	!	!	!	!	!	!	!	!	!	!LO:TX:a:t=P:problem=w źródle ozdobna kreska końcowa ==;;	!	!LO:TX:a:t=P:problem=w źródle ozdobna kreska końcowa ==;;	!	!	!	!	!	!LO:TX:a:t=P:problem=w źródle ozdobna kreska końcowa ==;;	!	!	!
==	==	==	==	==	==	==	==	==	==	==	==	==	==	==	==	==	==	==	==	==	==	==
*-	*-	*-	*-	*-	*-	*-	*-	*-	*-	*-	*-	*-	*-	*-	*-	*-	*-	*-	*-	*-	*-	*-
!!!system-decoration: [(s1,s2,s3,s4)][(s5,s6,s7)][(s8,s9,s10)]
!!!RDF**kern: > = above
!!!RDF**kern: < = below
!!!EED: Wojciech Jakubiak-Danek
!!!EEV: 2020-12-28
!!!ENC: Marcin Jachim
!!!END: 2020-07-02
!!!YEC: Copyright 2022 Narodowy Instytut Fryderyka Chopina (https://polishscores.org)
!!!YEM: License CC-BY-4.0 (https://creativecommons.org/licenses/by/4.0)
